svg/icons/src/icon-claims.svg

<?xml version="1.0" encoding="UTF-8"?>
<svg width="32px" height="32px" viewBox="0 0 32 32" version="1.1" xmlns="http://www.w3.org/2000/svg" xmlns:xlink="http://www.w3.org/1999/xlink">
    <!-- Generator: Sketch 52.5 (67469) - http://www.bohemiancoding.com/sketch -->
    <title>icon-claims</title>
    <desc>Created with Sketch.</desc>
    <g id="icon-claims" stroke="none" stroke-width="1" fill="none" fill-rule="evenodd">
        <path d="M22.5262998,13.6058784 L19.4551509,13.6058784 C18.933366,13.6058784 18.5103758,14.0250399 18.5103758,14.5421017 C18.5103758,15.0591636 18.933366,15.4783251 19.4551509,15.4783251 L20.2424635,15.4783251 C20.4163917,15.4783251 20.5573885,15.6180455 20.5573885,15.7903995 L20.5573885,16.0637767 C20.5573885,16.5808386 20.9803787,17 21.5021636,17 C22.0239484,17 22.4469386,16.5808386 22.4469386,16.0637767 L22.4469386,15.5569678 C22.4469386,15.5135346 22.4824698,15.4783251 22.5262998,15.4783251 C23.0603202,15.521488 23.5865098,15.3299657 23.9653733,14.9545315 C24.3442368,14.5790974 24.5375085,14.0576706 24.4939513,13.5284839 C24.4939513,12.3663187 23.2972362,11.5674081 22.0299779,10.7235588 C21.4782724,10.3818101 20.9562157,9.99516867 20.4692095,9.56763506 C20.4258777,9.51999122 20.4016761,9.45825825 20.4011857,9.39412167 L23.5491762,9.39412167 C24.0709611,9.39412165 24.4939513,8.97496019 24.4939513,8.45789833 C24.4939513,7.94083647 24.0709611,7.52167501 23.5491762,7.521675 L22.7618637,7.521675 C22.5879354,7.521675 22.4469386,7.38195451 22.4469386,7.20960055 L22.4469386,6.93622334 C22.4469386,6.41916147 22.0239484,6 21.5021636,6 C20.9803787,6 20.5573885,6.41916147 20.5573885,6.93622334 L20.5573885,7.44303224 C20.5567005,7.48597717 20.52137,7.52043211 20.4780274,7.5204267 C19.9407262,7.46208765 19.4057115,7.64832463 19.0232636,8.02682546 C18.6408158,8.4053263 18.4521923,8.93525924 18.5103758,9.46777124 C18.5103758,10.6286882 19.7070909,11.4275988 20.9743492,12.2726964 C21.5318837,12.6163899 22.0583087,13.0073216 22.5477147,13.4411031 C22.58514,13.4853766 22.6044661,13.5419394 22.6018818,13.5996369 L22.5262998,13.6058784 Z" id="Path" fill="#2333FF"></path>
        <path d="M21.4986804,19.9999999 C25.1390036,20.0004805 28.421122,17.807909 29.8144354,14.4447809 C31.2077488,11.0816527 30.4378337,7.21036075 27.8637365,4.63626351 C25.2896392,2.06216627 21.4183473,1.29225123 18.0552191,2.6855646 C14.692091,4.07887796 12.4995195,7.36099636 12.5000001,11.0013196 C12.5052389,15.9689819 16.5310181,19.9947611 21.4986804,19.9999999 Z M21.4986804,4.37765399 C24.1778112,4.37717342 26.5934046,5.99067301 27.6189965,8.46572913 C28.6445885,10.9407852 28.0781891,13.7899367 26.1839275,15.6845382 C24.2896659,17.5791396 21.440616,18.1460501 18.965376,17.1209022 C16.4901359,16.0957543 14.876203,13.6804503 14.876203,11.0013196 C14.8775109,7.34340623 17.8407698,4.3774893 21.4986804,4.37290158 L21.4986804,4.37765399 Z" id="Shape" fill="#2333FF" fill-rule="nonzero"></path>
        <path d="M26.3950275,23.5171838 L26.383083,23.5171838 L22.1774149,24.9886903 C22.0950876,25.0180888 22.0285898,25.0831848 21.9946636,25.1675892 C21.6139383,26.0768723 20.7619672,26.6650947 19.8195652,26.6693321 L15.0417542,26.6693321 C14.7119152,26.6693321 14.4445278,26.3873048 14.4445278,26.0394064 C14.4445278,25.691508 14.7119152,25.4094807 15.0417542,25.4094807 L19.8195652,25.4094807 C20.4792432,25.4094807 21.0140179,24.8454259 21.0140179,24.1496292 C21.0140179,23.4538324 20.4792432,22.8897777 19.8195652,22.8897777 L15.6389806,22.8897777 C14.2673115,21.7588811 12.5996219,21.0992565 10.8611696,21.0000005 L8.40537478,21.0000005 C7.6639697,20.9996376 6.93270372,21.1816792 6.26969327,21.5316579 L2.6648349,23.4327737 C2.5641879,23.4862951 2.50050617,23.5948354 2.50000042,23.7137206 L2.50000042,30.5169185 C2.49981877,30.6313169 2.55892645,30.7366734 2.65408482,30.7915661 C2.74861246,30.8472514 2.86436269,30.844356 2.95628137,30.784007 L6.80003029,28.2403669 C7.10666641,28.0403897 7.48162593,27.9942416 7.82367629,28.1143817 C19.7275923,32.3449629 15.7405091,32.3638607 29.163769,25.2016052 C29.3509674,25.1002745 29.4765117,24.9055454 29.4970418,24.6846729 C29.5175719,24.4638005 29.4302735,24.2470619 29.2652975,24.1093139 C28.4740592,23.3927995 27.3839026,23.1679026 26.3950275,23.5171838 Z" id="Path" fill="#2333FF"></path>
    </g>
</svg>

<svg width="32" height="32" xmlns="http://www.w3.org/2000/svg"><g fill="#2333FF" fill-rule="evenodd"><path d="M22.526 13.606h-3.07a.94.94 0 0 0-.946.936.94.94 0 0 0 .945.936h.787c.174 0 .315.14.315.312v.274a.94.94 0 0 0 .945.936.94.94 0 0 0 .945-.936v-.507c0-.043.035-.079.08-.079a1.835 1.835 0 0 0 1.438-.523 1.8 1.8 0 0 0 .529-1.427c0-1.162-1.197-1.96-2.464-2.804a11.723 11.723 0 0 1-1.56-1.156.26.26 0 0 1-.069-.174h3.148a.94.94 0 0 0 .945-.936.94.94 0 0 0-.945-.936h-.787a.314.314 0 0 1-.315-.312v-.274A.94.94 0 0 0 21.502 6a.94.94 0 0 0-.945.936v.507a.079.079 0 0 1-.079.077 1.793 1.793 0 0 0-1.455.507 1.758 1.758 0 0 0-.513 1.44c0 1.162 1.197 1.96 2.464 2.806.558.343 1.084.734 1.574 1.168a.23.23 0 0 1 .054.159l-.076.006z"/><path d="M21.499 20a9 9 0 1 0-8.999-8.999A9.008 9.008 0 0 0 21.499 20zm0-15.622A6.624 6.624 0 1 1 14.876 11 6.63 6.63 0 0 1 21.5 4.373v.005z" fill-rule="nonzero"/><path d="M26.395 23.517h-.012l-4.206 1.472a.312.312 0 0 0-.182.179c-.381.909-1.233 1.497-2.175 1.501h-4.778c-.33 0-.597-.282-.597-.63 0-.347.267-.63.597-.63h4.778c.66 0 1.194-.564 1.194-1.26 0-.695-.535-1.26-1.194-1.26h-4.181A8.247 8.247 0 0 0 10.861 21H8.405c-.741 0-1.472.182-2.135.532l-3.605 1.9a.318.318 0 0 0-.165.282v6.803c0 .114.059.22.154.275.095.055.21.052.302-.008L6.8 28.24c.307-.2.682-.246 1.024-.126 11.904 4.231 7.917 4.25 21.34-2.912a.654.654 0 0 0 .333-.517.67.67 0 0 0-.232-.576 2.845 2.845 0 0 0-2.87-.592z"/></g></svg>
